X:97
T:Dinky Dorian's
T:Dinky's
R:reel
C:Francie Dearg O Beirn
H:Also played in Dmix, see #777
D:Altan: Horse with a Heart.
D:De Dannan: .
Z:id:hn-reel-97
M:C|
K:Amix
ed|:cdBc ABcd|egfd edBd|gB~B2 gBaB|gB~B2 gfed|
cdBc ABcd|egfd edBd|g2ge f2ed|1 cdBc A2ed:|2 cdBc A2eg||
|:aA~A2 aAbA|aA~A2 agef|gB~B2 gBaB|gB~B2 gefg|
[1 aA~A2 aAbA|aA~A2 agef|g2ge f2ed|cdBc A2eg:|
[2 a2af g2ge|f2fd edef|g2ge f2ed|cdBc A2||
<end>
<start>
